dist/img/references/ms.svg

<svg width="108" height="40" viewBox="0 0 108 40" fill="none" xmlns="http://www.w3.org/2000/svg">
<g clip-path="url(#clip0_4022_966)">
<path d="M35.6029 0.506837V39.7642H32.0034V7.70748L19.0694 32.792H16.5369L3.59946 7.76074V39.7642H0V0.506837H3.76956L17.8307 27.6153L31.8918 0.506837H35.6029ZM73.7916 40.326L67.2679 33.3504C64.9054 37.0633 61.6994 39.7625 56.4128 39.7625C49.6073 39.7625 44.6007 35.0393 44.6007 29.2458C44.6007 24.4093 47.5816 21.4267 53.3202 18.1657C50.0592 14.9047 48.2569 12.2038 48.2569 8.99951C48.2569 4.32966 52.1948 0.618514 56.9746 0.618514C62.0379 0.618514 65.8057 4.32966 65.8057 8.99951C65.8057 13.6694 62.263 16.5352 58.7185 18.8426L66.8177 27.672L71.5992 19.9113L74.4668 21.7102L69.1801 30.318L76.4358 38.0237L73.7916 40.3294V40.326ZM55.5692 20.6415C50.4526 23.4541 48.2036 25.7048 48.2036 29.1909C48.2036 33.1838 51.8013 36.5032 56.4145 36.5032C60.5775 36.5032 62.7131 34.5909 65.0188 30.8781L55.5709 20.6415H55.5692ZM51.8013 8.99951C51.8013 11.1918 53.2617 13.0474 56.4695 16.4802C60.2373 14.2862 62.318 11.9804 62.318 8.99951C62.318 6.01857 60.3507 3.76783 56.9746 3.76783C53.827 3.76783 51.8013 6.24192 51.8013 8.99951ZM106.864 8.88611L103.601 10.0682C102.307 5.96359 98.6511 3.3194 93.7029 3.3194C88.3045 3.3194 84.76 6.01857 84.76 10.5733C84.76 20.3597 107.145 15.1847 107.145 28.9658C107.145 35.5462 101.857 40.1576 93.9846 40.1576C86.6723 40.1576 82.286 36.6716 79.25 31.1031L82.286 29.2476C84.3099 33.5222 88.021 36.8417 93.6479 36.8417C100.17 36.8417 103.548 33.8607 103.548 28.9108C103.548 19.0677 81.1606 23.9059 81.1606 10.5183C81.1606 2.58748 88.3045 0.00170898 93.5912 0.00170898C99.5531 0.00170898 104.953 2.7026 106.864 8.88783" fill="#000100"/>
</g>
<defs>
<clipPath id="clip0_4022_966">
<rect width="107.2" height="40" fill="white"/>
</clipPath>
</defs>
</svg>

<svg width="108" height="40" viewBox="0 0 108 40" fill="none" xmlns="http://www.w3.org/2000/svg"><g clip-path="url(#clip0_4022_966)"><path d="M35.603.507v39.257h-3.6V7.707L19.07 32.792h-2.532L3.599 7.761v32.003H0V.507h3.77l14.06 27.108L31.893.507h3.71zm38.189 39.819l-6.524-6.976c-2.363 3.713-5.569 6.413-10.855 6.413-6.806 0-11.812-4.724-11.812-10.517 0-4.837 2.98-7.82 8.72-11.08-3.262-3.261-5.064-5.962-5.064-9.166 0-4.67 3.938-8.381 8.718-8.381 5.063 0 8.83 3.71 8.83 8.38 0 4.67-3.542 7.536-7.087 9.844l8.1 8.829 4.781-7.76 2.868 1.798-5.287 8.608 7.256 7.706-2.644 2.305v-.003zM55.569 20.642c-5.116 2.812-7.365 5.063-7.365 8.549 0 3.993 3.597 7.312 8.21 7.312 4.163 0 6.3-1.912 8.605-5.625L55.57 20.642h-.002zM51.801 9c0 2.192 1.46 4.047 4.668 7.48 3.768-2.194 5.849-4.5 5.849-7.48 0-2.981-1.967-5.232-5.343-5.232C53.827 3.768 51.8 6.242 51.8 9zm55.063-.114l-3.263 1.182c-1.294-4.104-4.95-6.749-9.898-6.749-5.398 0-8.943 2.7-8.943 7.254 0 9.787 22.385 4.612 22.385 18.393 0 6.58-5.288 11.192-13.16 11.192-7.313 0-11.699-3.486-14.735-9.055l3.036-1.855c2.024 4.274 5.735 7.594 11.362 7.594 6.522 0 9.9-2.981 9.9-7.931 0-9.843-22.387-5.005-22.387-18.393 0-7.93 7.144-10.516 12.43-10.516 5.962 0 11.362 2.7 13.273 8.886" fill="#000100"/></g><defs><clipPath id="clip0_4022_966"><rect width="107.2" height="40" fill="#fff"/></clipPath></defs></svg>
